X: 10882
Q: "Slow"
M: C|
L: 1/16
K: D
~d3ed2A2 (B2d2) e2g2 | {g}f3e d2A2 B4 B2 A/B/c |\
d3e d2A2 B2d2 e2g2 | {g}f3e d2B2 {B}A4 A2 :|
g2 |\
~f3g a2f2 g2e2e2g2 | ~f3g a2d2 {d}B2 B3g |\
~f3g a2f2 g2e2e2g2 | {g}f3e d3B A4 A3g |
~f3ga2f2 g2e2e3g | ~f3g a2b2 B4 B3g |\
f3g a2f2 b2e2He3g | !p!{g}f3e d3B {B}A4 A2 |]



